!!!COM: Johann Sebastian Bach
!!!OTL: Fuga supra il Magnificat
!!!OMV: 
!!!SCT: BWV 733
!!!SCA: Thematisches-systematisches Verzeichnis der musikalischen Werke von Johann Sebastian Bach (Schmieder 1990)
**kern	**kern	**kern	**kern	**kern
*MM120	*MM120	*MM120	*MM120	*MM120
*d:m	*d:m	*d:m	*d:m	*d:m
*clefF4	*clefF4	*clefF4	*clefG2	*clefG2
*k[b-]	*k[b-]	*k[b-]	*k[b-]	*k[b-]
*M4/4	*M4/4	*M4/4	*M4/4	*M4/4
*tb32	*tb32	*tb32	*tb32	*tb32
=1	=1	=1	=1	=1
1r	1r	2A	1r	1r
.	.	2c	.	.
=2	=2	=2	=2	=2
1r	1r	2A	8r	1r
.	.	.	8c	.
.	.	.	8d	.
.	.	.	8e	.
.	.	2A	8f	.
.	.	.	8g	.
.	.	.	8a	.
.	.	.	8f	.
=3	=3	=3	=3	=3
1r	1r	2B-	4d	1r
.	.	.	4g	.
.	.	2A	4c	.
.	.	.	[4f	.
=4	=4	=4	=4	=4
1r	1r	1G	4f]	1r
.	.	.	8e	.
.	.	.	8d	.
.	.	.	[2e	.
=5	=5	=5	=5	=5
1r	1r	2.F	4e]	1r
.	.	.	4A	.
.	.	.	[2d	.
.	.	4G	.	.
=6	=6	=6	=6	=6
1r	1r	4A	2d]	1r
.	.	4E	.	.
.	.	4A	[2c	.
.	.	4G	.	.
=7	=7	=7	=7	=7
1r	1r	4F#	4c]	1r
.	.	4D	8B-	.
.	.	.	8A	.
.	.	[2G	4B-	.
.	.	.	8c	.
.	.	.	8B-	.
=8	=8	=8	=8	=8
1r	1r	4G]	2A	1r
.	.	8F	.	.
.	.	8E	.	.
.	.	4F	[2d	.
.	.	8G	.	.
.	.	8F	.	.
=9	=9	=9	=9	=9
1r	1r	2E	4d]	1r
.	.	.	8c#	.
.	.	.	8B	.
.	.	2A	4c#	.
.	.	.	8d	.
.	.	.	8e	.
=10	=10	=10	=10	=10
1r	1r	8D	2f	2a
.	.	8F	.	.
.	.	8E	.	.
.	.	8D	.	.
.	.	8C	[2e	2cc
.	.	8BB-	.	.
.	.	8AA	.	.
.	.	8C	.	.
=11	=11	=11	=11	=11
1r	1r	8FF	4e]	2a
.	.	8AA	.	.
.	.	8BB	8d	.
.	.	8C#	8e	.
.	.	8D	4f	2a
.	.	8E	.	.
.	.	8F	[4d	.
.	.	8D	.	.
=12	=12	=12	=12	=12
1r	1r	8G	4d]	2b-
.	.	8F	.	.
.	.	8E	4g	.
.	.	8G	.	.
.	.	8F	4c	2a
.	.	8E	.	.
.	.	8D	[4f	.
.	.	8F	.	.
=13	=13	=13	=13	=13
1r	1r	8BB	4f]	1g
.	.	8D	.	.
.	.	8C#	8e	.
.	.	8BB	8d	.
.	.	8C#	[2e	.
.	.	8E	.	.
.	.	8AA	.	.
.	.	8C#	.	.
=14	=14	=14	=14	=14
1r	1r	8D	2e]	1f
.	.	8AA	.	.
.	.	8BB	.	.
.	.	8C#	.	.
.	.	8D	[2d	.
.	.	8E	.	.
.	.	8F	.	.
.	.	8D	.	.
=15	=15	=15	=15	=15
1r	1r	[2A	8d]	2.e
.	.	.	8d	.
.	.	.	8c	.
.	.	.	8B	.
.	.	8A]	[2c	.
.	.	8G	.	.
.	.	8F	.	4e
.	.	8E	.	.
=16	=16	=16	=16	=16
1r	1r	4D	4c]	8f
.	.	.	.	8e
.	.	4G	2B	8d
.	.	.	.	8f
.	.	4C	.	8e
.	.	.	.	8d
.	.	4F	[4A	8c
.	.	.	.	8e
=17	=17	=17	=17	=17
1r	1r	4BB	8A]	1d
.	.	.	8c	.
.	.	8C	8B	.
.	.	8D	8A	.
.	.	8E	8G#	.
.	.	8F#	8A	.
.	.	8G#	[4B	.
.	.	8E	.	.
=18	=18	=18	=18	=18
1r	1r	8A	4B]	2c
.	.	8G	.	.
.	.	8F	2A	.
.	.	8E	.	.
.	.	8D	.	[2f
.	.	8C	.	.
.	.	8BB-	4d	.
.	.	8D	.	.
=19	=19	=19	=19	=19
1r	1r	8GG	4B-	2f]
.	.	8F	.	.
.	.	8E	2G	.
.	.	8D	.	.
.	.	8C	.	[2e
.	.	8BB-	.	.
.	.	8AA	4c	.
.	.	8C	.	.
=20	=20	=20	=20	=20
1r	1r	8FF	4A	2e]
.	.	8E	.	.
.	.	8D	2F	.
.	.	8C	.	.
.	.	8BB-	.	[2d
.	.	8AA	.	.
.	.	8GG	4B-	.
.	.	8BB-	.	.
=21	=21	=21	=21	=21
1r	1r	8EE	4G	2d]
.	.	8D	.	.
.	.	8C#	2E	.
.	.	8BB	.	.
.	.	8AA	.	2c#
.	.	8GG	.	.
.	.	8FF	4A	.
.	.	8AA	.	.
=22	=22	=22	=22	=22
1r	1r	4DD	8F	4d
.	.	.	8E	.
.	.	2D	8F	4r
.	.	.	8G	.
.	.	.	8A	2r
.	.	.	8B	.
.	.	[4C	8c	.
.	.	.	8A	.
=23	=23	=23	=23	=23
1r	1r	8C]	[1d	1r
.	.	8BB	.	.
.	.	8C	.	.
.	.	8D	.	.
.	.	8E	.	.
.	.	8F#	.	.
.	.	8G#	.	.
.	.	8E	.	.
=24	=24	=24	=24	=24
1r	1r	[1A	8d]	1r
.	.	.	8c	.
.	.	.	8d	.
.	.	.	8e	.
.	.	.	8f	.
.	.	.	8g	.
.	.	.	8a	.
.	.	.	8f	.
=25	=25	=25	=25	=25
1r	1r	8A]	[1b-	1r
.	.	8G	.	.
.	.	8A	.	.
.	.	8B-	.	.
.	.	8c	.	.
.	.	8d	.	.
.	.	8e	.	.
.	.	8c	.	.
=26	=26	=26	=26	=26
1r	1r	2.f	8b-]	1r
.	.	.	8g	.
.	.	.	8a	.
.	.	.	8b-	.
.	.	.	8cc	.
.	.	.	8dd	.
.	.	4e	8ee	.
.	.	.	8cc	.
=27	=27	=27	=27	=27
1r	1r	[1d	8ff	1r
.	.	.	8ee	.
.	.	.	8dd	.
.	.	.	8cc	.
.	.	.	8b	.
.	.	.	8a	.
.	.	.	8g#	.
.	.	.	8b	.
=28	=28	=28	=28	=28
1r	1r	8d]	4e	1r
.	.	8G#	.	.
.	.	8A	8f#	.
.	.	8B	8g#	.
.	.	8c	[2a	.
.	.	8d	.	.
.	.	8e	.	.
.	.	8c	.	.
=29	=29	=29	=29	=29
1r	1r	8f	4a]	1r
.	.	8e	.	.
.	.	8d	8b	.
.	.	8c	8a	.
.	.	8B	4g#	.
.	.	8c	.	.
.	.	8d	4b	.
.	.	8B	.	.
=30	=30	=30	=30	=30
1r	1r	8c	4e	2ee
.	.	8B	.	.
.	.	8c	4a	.
.	.	8d	.	.
.	.	8e	4g	2gg
.	.	8f	.	.
.	.	8g	4b	.
.	.	8e	.	.
=31	=31	=31	=31	=31
1r	8r	2.a	2.cc	2ee
.	8G#	.	.	.
.	8A	.	.	.
.	8B	.	.	.
.	8c	.	.	2ee
.	8d	.	.	.
.	8e	4g#	4b	.
.	8c	.	.	.
=32	=32	=32	=32	=32
1r	4A	4a	8cc	2ff
.	.	.	8ee	.
.	4d	[4b	8dd	.
.	.	.	8cc	.
.	4G#	4b]	8b	2ee
.	.	.	8dd	.
.	[4c	8a	8cc	.
.	.	8g	8b	.
=33	=33	=33	=33	=33
1r	4c]	8f	4a	1dd
.	.	8e	.	.
.	8B	8d	8g#	.
.	8A	8c	8f#	.
.	4B	4d	8g#	.
.	.	.	8a	.
.	4E	4G#	[4b	.
=34	=34	=34	=34	=34
1r	[1A	8A	4b]	[1cc
.	.	8B	.	.
.	.	8c	8a	.
.	.	8d	8g#	.
.	.	8e	[2a	.
.	.	8f	.	.
.	.	8g	.	.
.	.	8e	.	.
=35	=35	=35	=35	=35
1r	8A]	[2f	2a]	2cc]
.	8D	.	.	.
.	8E	.	.	.
.	8F	.	.	.
.	8G	2f]	[2g	[2b-
.	8A	.	.	.
.	8B-	.	.	.
.	8G	.	.	.
=36	=36	=36	=36	=36
1r	8c	[2e	2g]	2b-]
.	8C	.	.	.
.	8D	.	.	.
.	8E	.	.	.
.	8F	2e]	[2f	2a
.	8G	.	.	.
.	8A	.	.	.
.	8F	.	.	.
=37	=37	=37	=37	=37
1r	1B-	[1d	8f]	2dd
.	.	.	8cc	.
.	.	.	8b-	.
.	.	.	8a	.
.	.	.	8g	2ee
.	.	.	8f	.
.	.	.	8e	.
.	.	.	8g	.
=38	=38	=38	=38	=38
1r	1A	8d]	2a	1ff
.	.	8c#	.	.
.	.	8d	.	.
.	.	8e	.	.
.	.	8f	[2dd	.
.	.	8g	.	.
.	.	8a	.	.
.	.	8f	.	.
=39	=39	=39	=39	=39
1r	2G	8b-	2dd]	1ee
.	.	8a	.	.
.	.	8g	.	.
.	.	8f	.	.
.	2A	8e	[2cc	.
.	.	8d	.	.
.	.	8c	.	.
.	.	8e	.	.
=40	=40	=40	=40	=40
1r	2F#	2A	2cc]	8dd
.	.	.	.	8ccc
.	.	.	.	8bb-
.	.	.	.	8aa
.	[2G	4B-	2b-	8gg
.	.	.	.	8ff
.	.	4g	.	8ee
.	.	.	.	8gg
=41	=41	=41	=41	=41
1r	8G]	1r	2a 2e	2cc#
.	8B-	.	.	.
.	8A	.	.	.
.	8G	.	.	.
.	8F	.	2a 2f	[2dd
.	8E	.	.	.
.	8D	.	.	.
.	8F	.	.	.
=42	=42	=42	=42	=42
1r	1AA	8r	1a 1e	2dd]
.	.	8BB	.	.
.	.	8C#	.	.
.	.	8D	.	.
.	.	8E	.	2cc#
.	.	8F	.	.
.	.	8G	.	.
.	.	8E	.	.
=43	=43	=43	=43	=43
1r	2D	4F	2.d	2dd 2a
.	.	4B-	.	.
.	2r	4E	.	2r
.	.	4A	[4c	.
=44	=44	=44	=44	=44
1r	2.D	1r	8c]	1r
.	.	.	8e-	.
.	.	.	8d	.
.	.	.	8c	.
.	.	.	8B-	.
.	.	.	8A	.
.	4E	.	8G	.
.	.	.	8B-	.
=45	=45	=45	=45	=45
1r	[1F	1r	4A	8r
.	.	.	.	8b-
.	.	.	4c#	8a
.	.	.	.	8g
.	.	.	4d	8f
.	.	.	.	8e
.	.	.	4A	8d
.	.	.	.	8f
=46	=46	=46	=46	=46
1r	8F]	1r	2G	4B
.	8A	.	.	.
.	8G	.	.	4g
.	8F	.	.	.
.	8E	.	[2A	4c#
.	8D	.	.	.
.	8C#	.	.	4g
.	8E	.	.	.
=47	=47	=47	=47	=47
1r	2.D	1r	8A]	8f#
.	.	.	8F#	8d
.	.	.	8G	8e
.	.	.	8A	8f#
.	.	.	8B-	[2g
.	.	.	8c	.
.	4BB-	.	8d	.
.	.	.	8B-	.
=48	=48	=48	=48	=48
1r	4C	1r	8e-	2g]
.	.	.	8d	.
.	4AA	.	8c	.
.	.	.	8B-	.
.	2D	.	8A	2f#
.	.	.	8B-	.
.	.	.	8c	.
.	.	.	8A	.
=49	=49	=49	=49	=49
1r	8G	1r	2B-	2.g
.	8AA	.	.	.
.	8BB-	.	.	.
.	8C	.	.	.
.	8D	.	2A	.
.	8E	.	.	.
.	8F	.	.	[4f
.	8D	.	.	.
=50	=50	=50	=50	=50
1r	8G	1r	4B	4f]
.	8D	.	.	.
.	8E	.	4c	4e
.	8F	.	.	.
.	8G	.	4B	4d
.	8A	.	.	.
.	8B	.	[4d	4g
.	8G	.	.	.
=51	=51	=51	=51	=51
1r	8c	1r	4d]	2e
.	8B	.	.	.
.	8A	.	8c	.
.	8G	.	8B	.
.	8F	.	4c	[2a
.	8E	.	.	.
.	8D	.	4f	.
.	8F	.	.	.
=52	=52	=52	=52	=52
1r	4BB	1r	8d	2a]
.	.	.	8e	.
.	8C	.	8d	.
.	8D	.	8c	.
.	4E	.	8B	4g#
.	.	.	8A	.
.	4D	.	8G#	[4b
.	.	.	8B	.
=53	=53	=53	=53	=53
1r	4C	1r	4E	8b]
.	.	.	.	8e
.	4BB	.	4D	8f#
.	.	.	.	8g#
.	4C	.	4E	8a
.	.	.	.	8b
.	[4F	.	[4A	8cc
.	.	.	.	8a
=54	=54	=54	=54	=54
1r	8F]	1r	4A]	1dd
.	8BB	.	.	.
.	8C	.	4a	.
.	8D	.	.	.
.	8E	.	4g#	.
.	8F#	.	.	.
.	8G#	.	4b	.
.	8E	.	.	.
=55	=55	=55	=55	=55
1r	8A	1r	2e	2cc
.	8c	.	.	.
.	8B	.	.	.
.	8A	.	.	.
.	8G	.	2g	2b
.	8F	.	.	.
.	8E	.	.	.
.	8G	.	.	.
=56	=56	=56	=56	=56
1r	8C	2A	2e	2cc
.	8F	.	.	.
.	8E	.	.	.
.	8D	.	.	.
.	8C	2c	2e	2g
.	8BB-	.	.	.
.	8AA	.	.	.
.	8C	.	.	.
=57	=57	=57	=57	=57
1r	8FF	2A	2f	2.a
.	8GG	.	.	.
.	8AA	.	.	.
.	8BB-	.	.	.
.	8C	2A	2e	.
.	8D	.	.	.
.	8E	.	.	4g
.	8C	.	.	.
=58	=58	=58	=58	=58
1r	4D	2B-	1d	8f
.	.	.	.	8b-
.	4C	.	.	8a
.	.	.	.	8g
.	4D	2A	.	8f
.	.	.	.	8e
.	[4BB-	.	.	8d
.	.	.	.	8f
=59	=59	=59	=59	=59
1r	4BB-]	1G	[1c	8e
.	.	.	.	8a
.	8C	.	.	8g
.	8D	.	.	8f
.	4C	.	.	8e
.	.	.	.	8f
.	4BB-	.	.	8g
.	.	.	.	8e
=60	=60	=60	=60	=60
1r	4AA	[1F	4c]	8f
.	.	.	.	8g
.	4GG	.	4r	8a
.	.	.	.	8b-
.	4AA	.	2r	8cc
.	.	.	.	8dd
.	4FF	.	.	8ee-
.	.	.	.	8cc
=61	=61	=61	=61	=61
1r	8BB-	4F]	1r	2dd
.	8C	.	.	.
.	8D	2b-	.	.
.	8E	.	.	.
.	8F	.	.	2cc
.	8G	.	.	.
.	8A	[4a	.	.
.	8F	.	.	.
=62	=62	=62	=62	=62
1r	2G	8a]	1r	[1b-
.	.	8g	.	.
.	.	8f	.	.
.	.	8e	.	.
.	2F	8d	.	.
.	.	8c	.	.
.	.	8B-	.	.
.	.	8d	.	.
=63	=63	=63	=63	=63
1r	4E	2G	1r	8b-]
.	.	.	.	8dd
.	4C	.	.	8cc
.	.	.	.	8b-
.	4F	4r	.	8a
.	.	.	.	8g
.	4AA	[4c	.	8f
.	.	.	.	8a
=64	=64	=64	=64	=64
1r	4BB-	4c]	1r	8d
.	.	.	.	8e
.	4GG	8B-	.	2f
.	.	8A	.	.
.	2C	8G	.	.
.	.	8A	.	.
.	.	8B-	.	4e
.	.	8G	.	.
=65	=65	=65	=65	=65
1r	4FF	4A	1r	2.f
.	4d	4r	.	.
.	4G	2r	.	.
.	4c	.	.	[4e
=66	=66	=66	=66	=66
1r	2F	1r	1r	8e]
.	.	.	.	8a
.	.	.	.	8b
.	.	.	.	8cc#
.	[2B-	.	.	8dd
.	.	.	.	8ee
.	.	.	.	8ff
.	.	.	.	8dd
=67	=67	=67	=67	=67
1r	8B-]	1r	1r	[1gg
.	8E	.	.	.
.	8F	.	.	.
.	8G	.	.	.
.	8A	.	.	.
.	8B	.	.	.
.	8c#	.	.	.
.	8A	.	.	.
=68	=68	=68	=68	=68
1r	[2d	8r	1r	2gg]
.	.	8e	.	.
.	.	8f	.	.
.	.	8g	.	.
.	8d]	8a	.	[2ff
.	8D	8b-	.	.
.	8E	8cc	.	.
.	8F	8a	.	.
=69	=69	=69	=69	=69
1r	8G	1b-	1r	2ff]
.	8A	.	.	.
.	8B-	.	.	.
.	8G	.	.	.
.	8c	.	.	[2ee
.	8C	.	.	.
.	8D	.	.	.
.	8E	.	.	.
=70	=70	=70	=70	=70
1r	8F	1a	1r	2ee]
.	8G	.	.	.
.	8A	.	.	.
.	8F	.	.	.
.	8B-	.	.	[2dd
.	8A	.	.	.
.	8G	.	.	.
.	8F	.	.	.
=71	=71	=71	=71	=71
1r	8E	1g	1r	2dd]
.	8D	.	.	.
.	8C#	.	.	.
.	8E	.	.	.
.	8AA	.	.	2cc#
.	8G	.	.	.
.	8F	.	.	.
.	8E	.	.	.
=72	=72	=72	=72	=72
1r	8D	4f	1r	4dd
.	8C	.	.	.
.	8BB-	4f#	.	4cc
.	8D	.	.	.
.	4GG	8g	.	2b-
.	.	8f	.	.
.	[4G	8e	.	.
.	.	8d	.	.
=73	=73	=73	=73	=73
1r	8G]	8c#	1r	2a
.	8B-	8d	.	.
.	8A	8e	.	.
.	8G	8c#	.	.
.	8F	4A	.	[2dd
.	8E	.	.	.
.	8D	4f	.	.
.	8F	.	.	.
=74	=74	=74	=74	=74
1r	8E	[2g	1r	2dd]
.	8D	.	.	.
.	8C#	.	.	.
.	8BB	.	.	.
.	8AA	8g]	.	2cc#
.	8GG	8b-	.	.
.	8FF	8a	.	.
.	8AA	8g	.	.
=75	=75	=75	=75	=75
1r	4DD	8f	2a	2dd
.	.	8f	.	.
.	4r	8e	.	.
.	.	8d	.	.
.	2r	8c	2cc	2ee
.	.	8B-	.	.
.	.	8A	.	.
.	.	8c	.	.
=76	=76	=76	=76	=76
1r	2D	8F	2a	4ff
.	.	8E	.	.
.	.	8F	.	4dd
.	.	8G	.	.
.	2F	8A	2a	4cc
.	.	8B-	.	.
.	.	8c	.	[4aa
.	.	8A	.	.
=77	=77	=77	=77	=77
1r	2D	8d	2b-	4aa]
.	.	8c	.	.
.	.	8B-	.	2gg
.	.	8d	.	.
.	2D	8c	2a	.
.	.	8B-	.	.
.	.	8A	.	4ff#
.	.	8c	.	.
=78	=78	=78	=78	=78
1r	2E-	[1B-	2g	8gg
.	.	.	.	8a
.	.	.	.	8b-
.	.	.	.	8cc
.	2D	.	2f	8dd
.	.	.	.	8ee-
.	.	.	.	8ff
.	.	.	.	8dd
=79	=79	=79	=79	=79
1r	1C	8B-]	2g	2ee-
.	.	8B-	.	.
.	.	8A	.	.
.	.	8G	.	.
.	.	8F#	2a	[2dd
.	.	8E	.	.
.	.	8D	.	.
.	.	8F#	.	.
=80	=80	=80	=80	=80
1r	4BB-	[1G	4b-	8dd]
.	.	.	.	8dd
.	4AA	.	4r	8ee
.	.	.	.	8ff#
.	4BB-	.	2r	8gg
.	.	.	.	8aa
.	4GG	.	.	8bb-
.	.	.	.	8gg
=81	=81	=81	=81	=81
1r	4AA	1G]	8r	[2cc
.	.	.	8f	.
.	4BB-	.	8e-	.
.	.	.	8d	.
.	4C	.	8e-	2cc_
.	.	.	8d	.
.	4AA	.	8c	.
.	.	.	8e-	.
=82	=82	=82	=82	=82
1r	4D	[2F#	4A	8cc]
.	.	.	.	8b-
.	4C	.	4r	8a
.	.	.	.	8b-
.	4BB-	2F]	2r	8cc
.	.	.	.	8ee-
.	4AA	.	.	8dd
.	.	.	.	8cc
=83	=83	=83	=83	=83
1r	8GG	4G	1r	4b-
.	8DD	.	.	.
.	8EE	4f	.	4a
.	8FF	.	.	.
.	8GG	4e	.	[2g
.	8AA	.	.	.
.	8BB-	4d	.	.
.	8GG	.	.	.
=84	=84	=84	=84	=84
1r	8C#	[2e	1r	4.g]
.	8AA	.	.	.
.	8BB	.	.	.
.	8C#	.	.	8a
.	8D	4e]	.	4.f
.	8E	.	.	.
.	8F	[4d	.	.
.	8D	.	.	8g
=85	=85	=85	=85	=85
1r	8G#	4d]	1r	2.e
.	8E	.	.	.
.	8F#	8c	.	.
.	8G#	8B	.	.
.	8A	[2c	.	.
.	8B	.	.	.
.	8c	.	.	4a
.	8A	.	.	.
=86	=86	=86	=86	=86
1r	8F#	4c]	1r	[2d
.	8D	.	.	.
.	8E	8B-	.	.
.	8F#	8A	.	.
.	[2G	2B-	.	8d]
.	.	.	.	8ff
.	.	.	.	8ee
.	.	.	.	8dd
=87	=87	=87	=87	=87
1r	2G]	[2A	1r	8cc#
.	.	.	.	8b
.	.	.	.	8a
.	.	.	.	8cc#
.	4F	8A]	.	[2dd
.	.	8cc	.	.
.	4D	8b-	.	.
.	.	8a	.	.
=88	=88	=88	=88	=88
1r	4E	8g	1r	2dd]
.	.	8f	.	.
.	4G	8e	.	.
.	.	8f	.	.
.	4A	8g	.	2cc#
.	.	8b-	.	.
.	4AA	8a	.	.
.	.	8g	.	.
=89	=89	=89	=89	=89
1r	8D	2f	2A	4dd
.	8d	.	.	.
.	8c	.	.	2ff
.	8B-	.	.	.
.	8A	4a	2c	.
.	8B-	.	.	.
.	8c	[4g	.	[4ee
.	8A	.	.	.
=90	=90	=90	=90	=90
1r	8F	4g]	2A	4ee]
.	8B-	.	.	.
.	8A	2f	.	2dd
.	8G	.	.	.
.	8F	.	2A	.
.	8G	.	.	.
.	8A	4e	.	4cc#
.	8F	.	.	.
=91	=91	=91	=91	=91
1r	8D	4f	2B-	4dd
.	8C	.	.	.
.	8D	4g	.	2cc
.	8E	.	.	.
.	8F	4c	2A	.
.	8E	.	.	.
.	8D	[4f	.	8dd
.	8F	.	.	8cc
=92	=92	=92	=92	=92
1r	8G	4f]	1G	1b-
.	8GG	.	.	.
.	8AA	8e-	.	.
.	8BB-	8d	.	.
.	8C	[2e-	.	.
.	8D	.	.	.
.	8E-	.	.	.
.	8C	.	.	.
=93	=93	=93	=93	=93
1r	[1F	8e-]	[2F	2a
.	.	8e-	.	.
.	.	8d	.	.
.	.	8c	.	.
.	.	8B-	2F_	2dd
.	.	8A	.	.
.	.	8G	.	.
.	.	8B-	.	.
=94	=94	=94	=94	=94
1r	2.F]	8A	8F]	2cc
.	.	8G	8E	.
.	.	8A	8F	.
.	.	8B-	8G	.
.	.	[2c	8A	[2ff
.	.	.	8B	.
.	4E	.	8c	.
.	.	.	8A	.
=95	=95	=95	=95	=95
1r	4D	2c]	[1d	8ff]
.	.	.	.	8ff
.	8E	.	.	8gg
.	8F	.	.	8aa
.	8G	[2B	.	4gg
.	8A	.	.	.
.	8B	.	.	[4ff
.	8G	.	.	.
=96	=96	=96	=96	=96
1r	2C	2B]	2d]	8ff]
.	.	.	.	8ee
.	.	.	.	8ff#
.	.	.	.	8gg#
.	[2F	[2A	2c	8aa
.	.	.	.	8bb
.	.	.	.	8ccc
.	.	.	.	8aa
=97	=97	=97	=97	=97
1r	8F]	2A]	[1B	[1dd
.	8BB	.	.	.
.	8C	.	.	.
.	8D	.	.	.
.	8E	4G#	.	.
.	8F#	.	.	.
.	8G#	[4e	.	.
.	8E	.	.	.
=98	=98	=98	=98	=98
1AA	[2A	8e]	4B]	4dd]
.	.	8f	.	.
.	.	8e	8A	8cc
.	.	8d	8G#	8b
.	8A]	4e	4A	4cc
.	8c	.	.	.
.	8B-	4f	[4c	[4ff
.	8A	.	.	.
=99	=99	=99	=99	=99
1C	1G	8c	2.c]	4ff]
.	.	8d	.	.
.	.	8e	.	8ee
.	.	8f	.	8dd
.	.	8g	.	4ee
.	.	8f	.	.
.	.	8e	[4e	[4gg
.	.	8g	.	.
=100	=100	=100	=100	=100
1AA	1A	2c#	8e]	8gg]
.	.	.	8g	8bb-
.	.	.	8f	8aa
.	.	.	8e	8gg
.	.	2d	[2d	8ff
.	.	.	.	8ee
.	.	.	.	8dd
.	.	.	.	8ff
=101	=101	=101	=101	=101
1AA	8r	2.e	4d]	2.ee
.	8E	.	.	.
.	8F#	.	8c	.
.	8G#	.	8B	.
.	8A	.	[2c	.
.	8B	.	.	.
.	8c	[4f	.	4ee-
.	8A	.	.	.
=102	=102	=102	=102	=102
1BB-	8F	2f]	4c]	[1dd
.	8E	.	.	.
.	8D	.	8B-	.
.	8F	.	8A	.
.	8G	2d	[2B-	.
.	8A	.	.	.
.	8B-	.	.	.
.	8G	.	.	.
=103	=103	=103	=103	=103
1AA	4c	4e	2B-]	8dd]
.	.	.	.	8cc
.	4G	4d	.	8dd
.	.	.	.	8ee
.	4A	4c	2A	8ff
.	.	.	.	8gg
.	4c	[4f	.	8aa
.	.	.	.	8ff
=104	=104	=104	=104	=104
[1GG	4B-	2.f]	8d	2bb-
.	.	.	8e-	.
.	4A	.	8d	.
.	.	.	8c	.
.	[2G	.	8B-	2r
.	.	.	8A	.
.	.	8e	8G	.
.	.	8d	8B-	.
=105	=105	=105	=105	=105
1GG]	4G]	[1c	2E	8r
.	.	.	.	8dd
.	8B-	.	.	8ee
.	8A	.	.	8ff
.	2B-	.	[2E-	8gg
.	.	.	.	8aa
.	.	.	.	8bb-
.	.	.	.	8gg
=106	=106	=106	=106	=106
[1FF	2A	2c]	8E-]	2ccc
.	.	.	8gg	.
.	.	.	8ff	.
.	.	.	8ee-	.
.	[2B-	[2d	8dd	[2bb-
.	.	.	8ee-	.
.	.	.	8ff	.
.	.	.	8dd	.
=107	=107	=107	=107	=107
1FF_	4B-]	2d]	[1b-	8bb-]
.	.	.	.	8aa
.	4A	.	.	8gg
.	.	.	.	8ff
.	2G	4c	.	8ee
.	.	.	.	8ff
.	.	4B-	.	8gg
.	.	.	.	8ee
=108	=108	=108	=108	=108
2FF]	[2F	2c	8b-]	[1ff
.	.	.	8b-	.
.	.	.	8a	.
.	.	.	8g	.
2r	8F]	2r	2a	.
.	8G	.	.	.
.	8A	.	.	.
.	8B-	.	.	.
=109	=109	=109	=109	=109
1r	[2c	8r	2g	2ff]
.	.	8d	.	.
.	.	8e	.	.
.	.	8f	.	.
.	8c]	8g	[2cc	[2ee
.	8C	8a	.	.
.	8D	8b-	.	.
.	8E	8g	.	.
=110	=110	=110	=110	=110
1r	8F	[2a	2cc]	2ee]
.	8G	.	.	.
.	8A	.	.	.
.	8F	.	.	.
.	8B	2a]	[2b	[2dd
.	8BB	.	.	.
.	8C	.	.	.
.	8D	.	.	.
=111	=111	=111	=111	=111
1r	8E	[2g	2b]	2dd]
.	8F	.	.	.
.	8G	.	.	.
.	8E	.	.	.
.	8A	2g]	[2a	[2cc
.	8AA	.	.	.
.	8BB	.	.	.
.	8C	.	.	.
=112	=112	=112	=112	=112
1r	8D	[1f	2a]	2cc]
.	8E	.	.	.
.	8F	.	.	.
.	8D	.	.	.
.	8G	.	[2g	2b
.	8E	.	.	.
.	8F	.	.	.
.	8G	.	.	.
=113	=113	=113	=113	=113
1r	8C	2f]	2g]	[2cc
.	8G	.	.	.
.	8A	.	.	.
.	8B	.	.	.
.	[2c	2r	2e	8cc]
.	.	.	.	8dd
.	.	.	.	8cc
.	.	.	.	8b
=114	=114	=114	=114	=114
1r	2c_	1r	[2f#	8a
.	.	.	.	8b
.	.	.	.	8cc
.	.	.	.	8a
.	8c]	.	4f#]	[2dd
.	8c	.	.	.
.	8B	.	8g#	.
.	8A	.	8a	.
=115	=115	=115	=115	=115
1r	8G#	2r	1b	1dd]
.	8A	.	.	.
.	8B	.	.	.
.	8G#	.	.	.
.	[2C	8r	.	.
.	.	8E	.	.
.	.	8F#	.	.
.	.	8G#	.	.
=116	=116	=116	=116	=116
1r	2C]	8A	[2a	2cc
.	.	8B	.	.
.	.	8c	.	.
.	.	8A	.	.
.	[2F	[2d	8a]	2r
.	.	.	8cc	.
.	.	.	8b	.
.	.	.	8a	.
=117	=117	=117	=117	=117
1r	2F]	2d]	8g#	2r
.	.	.	8a	.
.	.	.	8b	.
.	.	.	8g#	.
.	2E	2c	[2a	8r
.	.	.	.	8cc
.	.	.	.	8dd
.	.	.	.	8ee
=118	=118	=118	=118	=118
1r	2D	1B	2a_	8ff
.	.	.	.	8ee
.	.	.	.	8dd
.	.	.	.	8ff
.	[2E	.	4.a]	8b
.	.	.	.	8cc
.	.	.	.	[4dd
.	.	.	8g#	.
=119	=119	=119	=119	=119
1AA	8E]	2A	2.a	4dd]
.	8E	.	.	.
.	8F#	.	.	8cc
.	8G#	.	.	8b
.	8A	2r	.	[2cc
.	8B	.	.	.
.	8c	.	[4f	.
.	8A	.	.	.
=120	=120	=120	=120	=120
1C	2.G	1r	8f]	1cc_
.	.	.	8a	.
.	.	.	8g	.
.	.	.	8f	.
.	.	.	8e	.
.	.	.	8d	.
.	4F#	.	8c	.
.	.	.	8e-	.
=121	=121	=121	=121	=121
1GG	1G	8r	4d	4cc]
.	.	8A	.	.
.	.	8B-	4g	4b-
.	.	8c	.	.
.	.	8d	4f#	4a
.	.	8e	.	.
.	.	8f#	4a	4dd
.	.	8d	.	.
=122	=122	=122	=122	=122
1GG	1r	[1g	8g	8b-
.	.	.	8a	8cc
.	.	.	8b-	8dd
.	.	.	8g	8ee
.	.	.	8a	8ff#
.	.	.	8b-	8gg
.	.	.	8cc	8aa
.	.	.	8a	8ff#
=123	=123	=123	=123	=123
1GG	8r	2g]	2.dd	2.bb-
.	8G	.	.	.
.	8A	.	.	.
.	8B-	.	.	.
.	8c	2r	.	.
.	8d	.	.	.
.	8e-	.	[4cc	[4aa
.	8c	.	.	.
=124	=124	=124	=124	=124
1GG	2d	8r	4cc]	4aa]
.	.	8E	.	.
.	.	8F#	4b-	2gg
.	.	8G	.	.
.	2r	8A	8cc	.
.	.	8B-	8dd	.
.	.	8c	8ee-	4ff#
.	.	8A	8cc	.
=125	=125	=125	=125	=125
1GG	8r	[1B-	2dd	[1gg
.	8f	.	.	.
.	8e	.	.	.
.	8d	.	.	.
.	8c#	.	[2ee	.
.	8d	.	.	.
.	8e	.	.	.
.	8c#	.	.	.
=126	=126	=126	=126	=126
1DD	1d	8B-]	4ee]	4gg]
.	.	8B-	.	.
.	.	8A	8dd	8ff
.	.	8G	8cc#	8ee
.	.	8F	2dd	4ff
.	.	8G	.	.
.	.	8A	.	4gg
.	.	8F	.	.
=127	=127	=127	=127	=127
1FF	1r	[1D	8r	1aa
.	.	.	8a	.
.	.	.	8b	.
.	.	.	8cc#	.
.	.	.	8dd	.
.	.	.	8ee	.
.	.	.	8ff	.
.	.	.	8dd	.
=128	=128	=128	=128	=128
[1EE	8r	1D]	4gg	4bb-
.	8D	.	.	.
.	8E	.	4ff	4aa
.	8F	.	.	.
.	8G	.	[2ee	[2gg
.	8A	.	.	.
.	8B-	.	.	.
.	8G	.	.	.
=129	=129	=129	=129	=129
1EE]	4E	4C#	4ee]	8gg]
.	.	.	.	8aa
.	4F	4D	2dd	8gg
.	.	.	.	8ff
.	2G	2E	.	8ee
.	.	.	.	8ff#
.	.	.	[4cc	8gg
.	.	.	.	8ee
=130	=130	=130	=130	=130
[1DD	2A	2C	8cc]	2ff#
.	.	.	8ee-	.
.	.	.	8dd	.
.	.	.	8cc	.
.	2r	2r	8b-	2gg
.	.	.	8a	.
.	.	.	8g	.
.	.	.	8b-	.
=131	=131	=131	=131	=131
1DD_	1r	8r	2f#	2aa
.	.	8e-	.	.
.	.	8d	.	.
.	.	8c	.	.
.	.	8B-	2g	[2dd
.	.	8A	.	.
.	.	8G	.	.
.	.	8B-	.	.
=132	=132	=132	=132	=132
1DD_	8r	4F#	2.a	4dd]
.	8D	.	.	.
.	8E	4A	.	4cc
.	8F#	.	.	.
.	8G	2d	.	[2b-
.	8A	.	.	.
.	8B-	.	[4g	.
.	8G	.	.	.
=133	=133	=133	=133	=133
1DD_	4C#	4e	8g]	8b-]
.	.	.	8f	8a
.	4D	4A	8e	8g
.	.	.	8d	8f
.	2G	2B-	8c#	8e
.	.	.	8d	8f
.	.	.	8e	8g
.	.	.	8c#	8e
=134	=134	=134	=134	=134
4DD]	4F	4A	4d	8g
.	.	.	.	8f
4EE	4r	4r	4r	8e
.	.	.	.	8d
4FF	4r	4r	4r	[2dd
4GG	4G	4B-	4e	.
=135	=135	=135	=135	=135
1AA	4F	[2A	8f	2dd]
.	.	.	8a	.
.	8E	.	8g	.
.	8D	.	8f	.
.	2E	2A_	8e	2cc#
.	.	.	8f#	.
.	.	.	8g	.
.	.	.	8e	.
=136	=136	=136	=136	=136
1DD	1D	1A]	1f#	1dd
==	==	==	==	==
*-	*-	*-	*-	*-
!!!ENC: Peter van Kranenburg (peter@musical-style-recognition.net)
!!!END: 2021-03-28
